X:712
M:C
L:1/8
Q:1/4=140
K:F
c<A B>G F2F:|
f|a/g/f/g/ a<e f<c f>g|a/g/f/g/ a<f e<g ~g2|a/g/f/g/ a<e f>c fe/d/|
c<A B>G F2 F>f|a/g/f/g/ a<e f<cf>g|a/g/f/g/ a<f eg ~gf/g/|a>fd>f e<cf>d|
d/c/B/A/ c/B/A/G/ F2F||

